X: 41455
T: Two Of Two For Joy
R: jig
M: 6/8
K: Dmajor
|:A/G/|F2 A dAF|G2 B e2 d|cec Age|fdB ABG|
F2 A dAF|G2 B e2 d|cge Age|d3 d2:|
|:f/g/|afd AFD|G2 F E2 e/f/|gec AGE|
[1 F2 E D2 f/g/|afd afd|g2 B e2 e/d/|cge Age|d3 d2:|
[2 F2 d [F2f2] g|af/g/a a^ga|b2 g e2 d|cea g2 c|d3- d2||

